_includes/icons/ios-ps.svg

<svg fill="#666" height="50" viewBox="0 0 50 50" width="50" xmlns="http://www.w3.org/2000/svg"><path d="m6 0v50h38v-35.414062l-14.585937-14.585938zm2 2h20v14h14v32h-34zm22 1.414063 10.585938 10.585937h-10.585938zm-.609375 21.027343c-2.140625 0-3.347656 1.410157-3.347656 3.195313 0 1.242187.882812 2.378906 2.160156 3.191406.933594.648438 1.496094 1.175781 1.496094 2.09375 0 .953125-.613281 1.597656-1.734375 1.597656-.597656 0-1.34375-.203125-1.769531-.457031l-.304688 1.5625c.355469.238281 1.222656.472656 2.074219.472656 2.054687 0 3.515625-1.304687 3.515625-3.363281 0-1.222656-.578125-2.328125-2.023438-3.28125-1.171875-.746094-1.628906-1.15625-1.628906-2.039062 0-.699219.492188-1.394532 1.53125-1.394532.609375 0 1.085938.1875 1.40625.390625l.328125-1.5625c-.308594-.183593-.972656-.40625-1.703125-.40625zm-8.140625.050782c-.800781 0-1.550781.085937-2.125.222656v11.285156h1.800781v-4.472656c.171875.019531.324219.019531.511719.019531.96875 0 2.070313-.390625 2.75-1.191406.527344-.613281.851563-1.394531.851563-2.546875 0-.988281-.304688-1.871094-.917969-2.449219-.679688-.644531-1.667969-.867187-2.871094-.867187zm.304688 1.476562c1.222656 0 1.664062.902344 1.664062 1.972656 0 1.308594-.660156 2.125-1.851562 2.125-.1875 0-.304688 0-.441407-.035156v-3.976562c.152344-.050782.375-.085938.628907-.085938z"/></svg>

<svg xmlns="http://www.w3.org/2000/svg" viewBox="0 0 50 50" width="50" height="50" fill="#666"><path d="M 6 0 L 6 50 L 44 50 L 44 14.585938 L 29.414063 0 Z M 8 2 L 28 2 L 28 16 L 42 16 L 42 48 L 8 48 Z M 30 3.414063 L 40.585938 14 L 30 14 Z M 29.390625 24.441406 C 27.25 24.441406 26.042969 25.851563 26.042969 27.636719 C 26.042969 28.878906 26.925781 30.015625 28.203125 30.828125 C 29.136719 31.476563 29.699219 32.003906 29.699219 32.921875 C 29.699219 33.875 29.085938 34.519531 27.964844 34.519531 C 27.367188 34.519531 26.621094 34.316406 26.195313 34.0625 L 25.890625 35.625 C 26.246094 35.863281 27.113281 36.097656 27.964844 36.097656 C 30.019531 36.097656 31.480469 34.792969 31.480469 32.734375 C 31.480469 31.511719 30.902344 30.40625 29.457031 29.453125 C 28.285156 28.707031 27.828125 28.296875 27.828125 27.414063 C 27.828125 26.714844 28.320313 26.019531 29.359375 26.019531 C 29.96875 26.019531 30.445313 26.207031 30.765625 26.410156 L 31.09375 24.847656 C 30.785156 24.664063 30.121094 24.441406 29.390625 24.441406 Z M 21.25 24.492188 C 20.449219 24.492188 19.699219 24.578125 19.125 24.714844 L 19.125 36 L 20.925781 36 L 20.925781 31.527344 C 21.097656 31.546875 21.25 31.546875 21.4375 31.546875 C 22.40625 31.546875 23.507813 31.15625 24.1875 30.355469 C 24.714844 29.742188 25.039063 28.960938 25.039063 27.808594 C 25.039063 26.820313 24.734375 25.9375 24.121094 25.359375 C 23.441406 24.714844 22.453125 24.492188 21.25 24.492188 Z M 21.554688 25.96875 C 22.777344 25.96875 23.21875 26.871094 23.21875 27.941406 C 23.21875 29.25 22.558594 30.066406 21.367188 30.066406 C 21.179688 30.066406 21.0625 30.066406 20.925781 30.03125 L 20.925781 26.054688 C 21.078125 26.003906 21.300781 25.96875 21.554688 25.96875 Z"/></svg>
